flaticon/security/security-camera-3.svg

<svg xmlns="http://www.w3.org/2000/svg" width="32" height="32" viewBox="0 0 24 24">
    <path d="M 24 4.800781 C 24 4.578125 23.820312 4.398438 23.601562 4.398438 L 22.398438 4.398438 L 22.398438 2.800781 L 1.199219 2.800781 L 1.199219 4.398438 L 0.398438 4.398438 C 0.179688 4.398438 0 4.578125 0 4.800781 L 0 8.800781 C 0 11.3125 0.769531 13.683594 2.074219 15.664062 C 2.078125 15.667969 2.078125 15.675781 2.082031 15.683594 C 3.859375 18.386719 6.519531 20.230469 9.476562 20.90625 C 9.539062 20.921875 9.605469 20.9375 9.671875 20.953125 C 9.792969 20.980469 9.914062 21 10.035156 21.023438 C 10.144531 21.042969 10.25 21.058594 10.359375 21.074219 C 10.460938 21.089844 10.5625 21.105469 10.667969 21.117188 C 10.804688 21.132812 10.945312 21.148438 11.085938 21.15625 C 11.164062 21.164062 11.246094 21.171875 11.324219 21.175781 C 11.550781 21.191406 11.773438 21.199219 12 21.199219 C 12.226562 21.199219 12.449219 21.191406 12.675781 21.179688 C 12.753906 21.171875 12.835938 21.164062 12.914062 21.160156 C 13.054688 21.148438 13.195312 21.132812 13.332031 21.117188 C 13.4375 21.105469 13.539062 21.089844 13.640625 21.074219 C 13.75 21.058594 13.855469 21.042969 13.964844 21.023438 C 14.085938 21 14.207031 20.980469 14.328125 20.953125 C 14.394531 20.941406 14.457031 20.925781 14.523438 20.910156 C 17.480469 20.230469 20.140625 18.386719 21.917969 15.683594 C 21.921875 15.679688 21.921875 15.671875 21.925781 15.664062 C 23.230469 13.683594 24 11.316406 24 8.800781 Z M 23.199219 5.199219 L 23.199219 8.398438 L 16 8.398438 L 16 5.199219 Z M 8.800781 5.199219 L 10.398438 5.199219 L 10.398438 8.398438 L 8.800781 8.398438 Z M 11.199219 5.199219 L 12.800781 5.199219 L 12.800781 8.398438 L 11.199219 8.398438 Z M 13.601562 5.199219 L 15.199219 5.199219 L 15.199219 8.398438 L 13.601562 8.398438 Z M 2 3.601562 L 21.601562 3.601562 L 21.601562 4.398438 L 2 4.398438 Z M 0.800781 5.199219 L 8 5.199219 L 8 8.398438 L 0.800781 8.398438 Z M 21.019531 15.574219 C 20.933594 15.695312 20.847656 15.816406 20.757812 15.933594 C 20.6875 16.023438 20.613281 16.117188 20.539062 16.207031 C 20.496094 16.257812 20.453125 16.3125 20.410156 16.363281 C 19.175781 17.824219 17.605469 18.976562 15.835938 19.667969 C 16.917969 18.644531 17.601562 17.203125 17.601562 15.601562 C 17.601562 13.953125 16.882812 12.472656 15.746094 11.449219 C 17.871094 12.203125 19.746094 13.589844 21.097656 15.46875 C 21.074219 15.503906 21.046875 15.539062 21.019531 15.574219 Z M 16.800781 15.601562 C 16.800781 18.246094 14.648438 20.398438 12 20.398438 C 9.351562 20.398438 7.199219 18.246094 7.199219 15.601562 C 7.199219 12.953125 9.351562 10.800781 12 10.800781 C 14.648438 10.800781 16.800781 12.953125 16.800781 15.601562 Z M 6.398438 15.601562 C 6.398438 17.203125 7.082031 18.644531 8.164062 19.667969 C 6.394531 18.976562 4.824219 17.828125 3.59375 16.367188 C 3.546875 16.3125 3.5 16.257812 3.457031 16.203125 C 3.382812 16.113281 3.3125 16.023438 3.242188 15.933594 C 3.152344 15.8125 3.058594 15.6875 2.972656 15.5625 C 2.949219 15.53125 2.925781 15.5 2.902344 15.46875 C 4.253906 13.589844 6.128906 12.203125 8.253906 11.449219 C 7.117188 12.472656 6.398438 13.953125 6.398438 15.601562 Z M 21.554688 14.75 C 19.289062 11.765625 15.765625 10 12 10 C 8.238281 10 4.710938 11.765625 2.445312 14.75 C 1.46875 13.105469 0.875 11.207031 0.808594 9.199219 L 23.191406 9.199219 C 23.125 11.207031 22.53125 13.105469 21.554688 14.75 Z M 21.554688 14.75"/>
    <path d="M 12 19.601562 C 14.207031 19.601562 16 17.804688 16 15.601562 C 16 13.394531 14.207031 11.601562 12 11.601562 C 9.792969 11.601562 8 13.394531 8 15.601562 C 8 17.804688 9.792969 19.601562 12 19.601562 Z M 12 12.398438 C 13.765625 12.398438 15.199219 13.835938 15.199219 15.601562 C 15.199219 17.363281 13.765625 18.800781 12 18.800781 C 10.234375 18.800781 8.800781 17.363281 8.800781 15.601562 C 8.800781 13.835938 10.234375 12.398438 12 12.398438 Z M 12 12.398438"/>
    <path d="M13.316406 16.515625C13.242188 16.59375 13.199219 16.695312 13.199219 16.800781 13.199219 16.902344 13.242188 17.007812 13.316406 17.085938 13.390625 17.15625 13.496094 17.199219 13.601562 17.199219 13.703125 17.199219 13.808594 17.15625 13.882812 17.085938 13.957031 17.007812 14 16.902344 14 16.800781 14 16.695312 13.957031 16.59375 13.882812 16.515625 13.730469 16.367188 13.46875 16.367188 13.316406 16.515625zM11.601562 14C11.703125 14 11.808594 13.957031 11.882812 13.882812 11.957031 13.808594 12 13.703125 12 13.601562 12 13.496094 11.957031 13.390625 11.882812 13.316406 11.730469 13.167969 11.464844 13.167969 11.316406 13.316406 11.242188 13.390625 11.199219 13.496094 11.199219 13.601562 11.199219 13.703125 11.242188 13.808594 11.316406 13.882812 11.390625 13.957031 11.496094 14 11.601562 14zM12.800781 14C13.234375 14 13.601562 14.550781 13.601562 15.199219 13.601562 15.421875 13.777344 15.601562 14 15.601562 14.222656 15.601562 14.398438 15.421875 14.398438 15.199219 14.398438 14.097656 13.683594 13.199219 12.800781 13.199219 12.578125 13.199219 12.398438 13.378906 12.398438 13.601562 12.398438 13.820312 12.578125 14 12.800781 14zM12.800781 14"/>
</svg>

<svg xmlns="http://www.w3.org/2000/svg" width="32" height="32" viewBox="0 0 24 24">
    <path d="M24 4.8a.401.401 0 0 0-.398-.402h-1.204V2.801H1.2v1.597H.4A.401.401 0 0 0 0 4.801v4c0 2.511.77 4.883 2.074 6.863.004.004.004.012.008.02 1.777 2.703 4.438 4.546 7.395 5.222.062.016.128.032.195.047.121.027.242.047.363.07.11.02.215.036.324.051a7.216 7.216 0 0 0 .727.082A9.763 9.763 0 0 0 12 21.2c.227 0 .45-.008.676-.02.078-.007.16-.015.238-.019.14-.012.281-.027.418-.043.105-.012.207-.027.309-.043.109-.015.214-.031.324-.05.12-.024.242-.044.363-.07.067-.013.129-.028.195-.044 2.957-.68 5.618-2.523 7.395-5.226.004-.004.004-.012.008-.02A12.468 12.468 0 0 0 24 8.801zm-.8.4v3.198H16V5.2zm-14.4 0h1.598v3.198H8.801zm2.4 0h1.6v3.198h-1.6zm2.402 0h1.597v3.198h-1.597zM2 3.601h19.602v.796H2zM.8 5.199H8v3.2H.8zm20.22 10.375c-.086.121-.172.242-.262.36-.07.09-.145.183-.219.273-.043.05-.086.105-.129.156-1.234 1.461-2.805 2.614-4.574 3.305a5.585 5.585 0 0 0 1.766-4.066 5.574 5.574 0 0 0-1.856-4.153c2.125.754 4 2.14 5.352 4.02-.024.035-.051.07-.078.105zm-4.22.028a4.804 4.804 0 0 1-4.8 4.796 4.804 4.804 0 0 1-4.8-4.796c0-2.649 2.152-4.801 4.8-4.801 2.648 0 4.8 2.152 4.8 4.8zm-10.402 0c0 1.601.684 3.043 1.766 4.066a11.453 11.453 0 0 1-4.57-3.3c-.047-.055-.094-.11-.137-.165-.074-.09-.144-.18-.215-.27-.09-.12-.183-.245-.27-.37l-.07-.094a11.202 11.202 0 0 1 5.352-4.02 5.574 5.574 0 0 0-1.856 4.153zm15.157-.852A11.989 11.989 0 0 0 12 10c-3.762 0-7.29 1.766-9.555 4.75A11.622 11.622 0 0 1 .81 9.2H23.19a11.622 11.622 0 0 1-1.636 5.55zm0 0"/>
    <path d="M12 19.602c2.207 0 4-1.797 4-4 0-2.207-1.793-4-4-4s-4 1.793-4 4c0 2.203 1.793 4 4 4zm0-7.204c1.766 0 3.2 1.438 3.2 3.204 0 1.761-1.434 3.199-3.2 3.199a3.203 3.203 0 0 1-3.2-3.2 3.204 3.204 0 0 1 3.2-3.203zm0 0"/>
    <path d="M13.316 16.516a.416.416 0 0 0-.117.285c0 .101.043.207.117.285.075.07.18.113.286.113a.42.42 0 0 0 .28-.113A.423.423 0 0 0 14 16.8a.416.416 0 0 0-.117-.285.416.416 0 0 0-.567 0zm0 0M11.602 14a.406.406 0 0 0 .28-.117.406.406 0 0 0 .118-.281.409.409 0 0 0-.117-.286.416.416 0 0 0-.567 0 .409.409 0 0 0-.117.286c0 .101.043.207.117.28.075.075.18.118.286.118zm0 0M12.8 14c.434 0 .802.55.802 1.2a.398.398 0 1 0 .796 0c0-1.102-.714-2-1.597-2a.401.401 0 0 0 0 .8zm0 0"/>
</svg>
